X: 45
T:Crossing the Minch
% Nottingham Music Database
S:Trad via Lesley Dolman
M:4/4
L:1/8
R:Hornpipe
K:D
de|"D"fA(3AAA f2ef|"G"gB(3BBB g2ag|"D"fA(3AAA f2ef|"Em"gBed "A7"dcde|
"D"fA(3AAA f2ef|"G"gB(3BBB g2ag|"D"fgaf "A7"gecd|e2d2 d2:|
Ad|"D"fA(3AAA fgaf|"G"gB(3BBB gabg|"D"fA(3AAA fgaf|"Em"gBed "A7"dcde|
"D"fA(3AAA fgaf|"G"gB(3BBB g2ag|"D"fgaf "A7"gecd|e2d2 d2:|<end>
<start>
